Yaru++/mimetypes/48/application-vnd.snap.svg

<svg height="48" viewBox="0 0 12.699375 12.699376" width="48" xmlns="http://www.w3.org/2000/svg" xmlns:xlink="http://www.w3.org/1999/xlink"><linearGradient id="a" gradientUnits="userSpaceOnUse" x1="6.35044108" x2="6.35044108" y1=".13228552" y2="12.30252024"><stop offset="0" stop-color="#fff"/><stop offset=".125" stop-color="#fff" stop-opacity=".098039"/><stop offset=".92500001" stop-color="#fff" stop-opacity=".098039"/><stop offset="1" stop-opacity=".498039"/></linearGradient><path d="m4.1621996.39685664c-.588182 0-1.051318.013541-1.4324.077511-.381084.063969-.692923.1839555-.921348.4118408-.228422.22788546-.348984.53958346-.412356.92082876-.06337.3812456-.07574.8453924-.07286 1.4349839v3.239953 3.2415032c-.0029.5886857.0096 1.0525967.07286 1.4334327.06337.381246.183934.692944.412356.920829.228425.227885.540264.347873.921348.411841.381085.06397.844218.07751 1.4324.07751h4.3757442c.5881822 0 1.0510744-.01352 1.4313678-.07751.3802934-.064.6911794-.18439.9187604-.412357.227583-.227967.347433-.539443.411325-.920313.06389-.380867.07751-.844073.07751-1.4334327v-3.2415033-3.2415031c0-.5893606-.01362-1.0525645-.07751-1.4334338-.063892-.3808691-.183742-.6923443-.411325-.92031206-.227581-.2279676-.538467-.3483608-.9187604-.4123575-.3802934-.0639969-.8431856-.0775109-1.4313678-.0775109z" opacity=".1"/><path d="m4.1621996.13228634c-.588098 0-1.051593.014104-1.4324.078028-.381275.064001-.692825.1838558-.921348.4118408-.228562.2280265-.348957.53890086-.412356.92031206-.06331.3808966-.07574.8449217-.07286 1.4344672v3.2404697 3.2415032c-.0029.5889347.0096 1.0528007.07286 1.4334327.0634.381412.183792.692285.412356.920313.228526.227983.54007.347839.921348.411841.380807.06392.844302.07803 1.4324.07803h4.3757442c.5880922 0 1.0508336-.01408 1.4308492-.07803.380442-.06402.691478-.183652.919279-.411841.227723-.228107.347404-.539258.411325-.920313.06386-.38069.07751-.844227.07751-1.4334327v-3.2415036-3.2415031c0-.5892071-.01365-1.0527452-.07751-1.4334338-.063921-.3810543-.183602-.69220356-.411325-.92031206-.227801-.2281869-.538837-.347819-.919279-.4118408-.3800156-.0639501-.842757-.0780276-1.4308492-.0780276z" fill="#4b6d5d"/><g stroke-width=".105828"><path d="m3.1416406 3.4086167 3.4991488 3.4991515v-2.2375849z" fill="#8bcbab"/><path d="m7.1704459 4.6858934 2.4271232 1.0910431-.5343077-1.0910431z" fill="#fa6441"/><path d="m6.8557528 4.7658836v2.0334717l1.4593725-1.3700828z" fill="#8bcbab"/><path d="m5.8128696 6.4068414-1.61698 3.0515489 2.3455827-2.3456859z" fill="#8bcbab"/></g><path d="m1.5878056 6.2174037v3.2415036c-.01146 2.3393377.239778 2.5790437 2.574394 2.5790437h4.3757442c2.3346162 0 2.5743932-.23968 2.5743932-2.5790437v-3.2415036z" fill="#fff" opacity=".08"/><path d="m6.3500716.39685664v11.64109436h2.1878722c2.3346162 0 2.5743932-.23968 2.5743932-2.5790437v-3.2415036-3.2415031c0-2.33936516-.239777-2.57904396-2.5743932-2.57904396z" fill="#fff" opacity=".08"/><path d="m4.1625746.26457154c-.58592 0-1.044317.014459-1.410697.075961-.366379.061501-.647009.1731184-.849519.3751525s-.314257.48213756-.375153.84848516c-.0609.3663479-.07418.8250345-.07131 1.4122476v3.2409864 3.2415031c-.0029.5869047.01042 1.0455167.07131 1.4117297.0609.366348.17264.646451.375153.848485s.483137.313651.849519.375153c.36638.0615.824777.07596 1.410697.07596h4.3757449c.5859174 0 1.0436082-.01445 1.4091465-.07596.365538-.06151.645721-.173077.847453-.375153.201732-.202073.313212-.482325.374634-.848485.06142-.36616.07545-.82463.07545-1.4117297v-3.2415036-3.2415031c0-.5871009-.01402-1.0455706-.07545-1.4117309-.061422-.3661603-.172902-.64641086-.374634-.84848516s-.481915-.3136386-.847453-.3751525c-.3655383-.0615137-.8232291-.0759605-1.4091465-.0759605z" fill="none" opacity=".3" stroke="url(#a)" stroke-width=".26457"/></svg>

<?xml version="1.0" encoding="UTF-8" standalone="no"?>
<svg
   xmlns:dc="http://purl.org/dc/elements/1.1/"
   xmlns:cc="http://creativecommons.org/ns#"
   xmlns:rdf="http://www.w3.org/1999/02/22-rdf-syntax-ns#"
   xmlns:svg="http://www.w3.org/2000/svg"
   xmlns="http://www.w3.org/2000/svg"
   xmlns:xlink="http://www.w3.org/1999/xlink"
   xmlns:sodipodi="http://sodipodi.sourceforge.net/DTD/sodipodi-0.dtd"
   xmlns:inkscape="http://www.inkscape.org/namespaces/inkscape"
   height="48"
   viewBox="0 0 12.699375 12.699376"
   width="48"
   version="1.1"
   id="svg30"
   sodipodi:docname="48.svg"
   inkscape:version="0.92.5 (2060ec1f9f, 2020-04-08)">
  <metadata
     id="metadata36">
    <rdf:RDF>
      <cc:Work
         rdf:about="">
        <dc:format>image/svg+xml</dc:format>
        <dc:type
           rdf:resource="http://purl.org/dc/dcmitype/StillImage" />
        <dc:title></dc:title>
      </cc:Work>
    </rdf:RDF>
  </metadata>
  <defs
     id="defs34">
    <linearGradient
       gradientTransform="matrix(0.26457032,0,0,0.26457032,-84.661749,-16.006504)"
       inkscape:collect="always"
       xlink:href="#linearGradient927-3-6"
       id="linearGradient925"
       x1="344"
       y1="61"
       x2="344"
       y2="107"
       gradientUnits="userSpaceOnUse" />
    <linearGradient
       inkscape:collect="always"
       id="linearGradient927-3-6">
      <stop
         style="stop-color:#ffffff;stop-opacity:1;"
         offset="0"
         id="stop923-3" />
      <stop
         id="stop933-6"
         offset="0.125"
         style="stop-color:#ffffff;stop-opacity:0.09803922" />
      <stop
         id="stop931-7"
         offset="0.92500001"
         style="stop-color:#ffffff;stop-opacity:0.09803922" />
      <stop
         style="stop-color:#000000;stop-opacity:0.49803922"
         offset="1"
         id="stop925-5" />
    </linearGradient>
  </defs>
  <sodipodi:namedview
     pagecolor="#ffffff"
     bordercolor="#666666"
     borderopacity="1"
     objecttolerance="10"
     gridtolerance="10"
     guidetolerance="10"
     inkscape:pageopacity="0"
     inkscape:pageshadow="2"
     inkscape:window-width="1920"
     inkscape:window-height="1016"
     id="namedview32"
     showgrid="false"
     inkscape:zoom="4.9166667"
     inkscape:cx="24"
     inkscape:cy="24"
     inkscape:window-x="0"
     inkscape:window-y="27"
     inkscape:window-maximized="1"
     inkscape:current-layer="svg30" />
  <linearGradient
     id="a"
     gradientUnits="userSpaceOnUse"
     x1="6.35007308"
     x2="6.35007308"
     y1=".13228652"
     y2="12.30252124">
    <stop
       offset="0"
       stop-color="#fff"
       id="stop2" />
    <stop
       offset=".125"
       stop-color="#fff"
       stop-opacity=".098039"
       id="stop4" />
    <stop
       offset=".92500001"
       stop-color="#fff"
       stop-opacity=".098039"
       id="stop6" />
    <stop
       offset="1"
       stop-color="#fff"
       stop-opacity=".498039"
       id="stop8" />
  </linearGradient>
  <linearGradient
     id="b"
     gradientTransform="matrix(0 -.02997086 -.02997 0 15.739289 13.625373)"
     gradientUnits="userSpaceOnUse"
     x1="512"
     x2="-.000001"
     y1="397.99393"
     y2="125.99394">
    <stop
       offset="0"
       stop-color="#da1636"
       id="stop11" />
    <stop
       offset="1"
       stop-color="#f22c42"
       id="stop13" />
  </linearGradient>
  <path
     style="color:#000000;font-style:normal;font-variant:normal;font-weight:normal;font-stretch:normal;font-size:medium;line-height:normal;font-family:sans-serif;font-variant-ligatures:normal;font-variant-position:normal;font-variant-caps:normal;font-variant-numeric:normal;font-variant-alternates:normal;font-feature-settings:normal;text-indent:0;text-align:start;text-decoration:none;text-decoration-line:none;text-decoration-style:solid;text-decoration-color:#000000;letter-spacing:normal;word-spacing:normal;text-transform:none;writing-mode:lr-tb;direction:ltr;text-orientation:mixed;dominant-baseline:auto;baseline-shift:baseline;text-anchor:start;white-space:normal;shape-padding:0;clip-rule:nonzero;display:inline;overflow:visible;visibility:visible;opacity:0.1;isolation:auto;mix-blend-mode:normal;color-interpolation:sRGB;color-interpolation-filters:linearRGB;solid-color:#000000;solid-opacity:1;vector-effect:none;fill:#000000;fill-opacity:1;fill-rule:nonzero;stroke:none;stroke-width:0.52914065;stroke-linecap:butt;stroke-linejoin:miter;stroke-miterlimit:4;stroke-dasharray:none;stroke-dashoffset:0;stroke-opacity:1;marker:none;color-rendering:auto;image-rendering:auto;shape-rendering:auto;text-rendering:auto;enable-background:accumulate"
     d="m 4.1621996,0.39685664 c -0.588182,0 -1.051318,0.013541 -1.4324,0.077511 -0.381084,0.063969 -0.692923,0.1839555 -0.921348,0.4118408 -0.228422,0.22788546 -0.348984,0.53958346 -0.412356,0.92082876 -0.06337,0.3812456 -0.07574,0.8453924 -0.07286,1.4349839 v 3.239953 3.2415032 c -0.0029,0.5886857 0.0096,1.0525967 0.07286,1.4334327 0.06337,0.381246 0.183934,0.692944 0.412356,0.920829 0.228425,0.227885 0.540264,0.347873 0.921348,0.411841 0.381085,0.06397 0.844218,0.07751 1.4324,0.07751 h 4.3757442 c 0.5881822,0 1.0510744,-0.01352 1.4313678,-0.07751 0.3802934,-0.064 0.6911794,-0.18439 0.9187604,-0.412357 0.227583,-0.227967 0.347433,-0.539443 0.411325,-0.920313 0.06389,-0.380867 0.07751,-0.844073 0.07751,-1.4334327 V 6.481974 3.2404709 c 0,-0.5893606 -0.01362,-1.0525645 -0.07751,-1.4334338 C 11.235505,1.426168 11.115655,1.1146928 10.888072,0.88672504 10.660491,0.65875744 10.349605,0.53836424 9.9693116,0.47436754 9.5890182,0.41037064 9.126126,0.39685664 8.5379438,0.39685664 Z"
     id="path1020"
     inkscape:connector-curvature="0"
     sodipodi:nodetypes="sccsccccccsscccscsccsss" />
  <path
     style="color:#000000;display:inline;overflow:visible;visibility:visible;fill:#4b6d5d;fill-opacity:1;fill-rule:nonzero;stroke:none;stroke-width:0.26457033;marker:none;enable-background:accumulate"
     d="m 4.1621996,0.13228634 c -0.588098,0 -1.051593,0.014104 -1.4324,0.078028 -0.381275,0.064001 -0.692825,0.1838558 -0.921348,0.4118408 -0.228562,0.2280265 -0.348957,0.53890086 -0.412356,0.92031206 -0.06331,0.3808966 -0.07574,0.8449217 -0.07286,1.4344672 v 3.2404697 3.2415032 c -0.0029,0.5889347 0.0096,1.0528007 0.07286,1.4334327 0.0634,0.381412 0.183792,0.692285 0.412356,0.920313 0.228526,0.227983 0.54007,0.347839 0.921348,0.411841 0.380807,0.06392 0.844302,0.07803 1.4324,0.07803 h 4.3757442 c 0.5880922,0 1.0508336,-0.01408 1.4308492,-0.07803 0.380442,-0.06402 0.691478,-0.183652 0.919279,-0.411841 0.227723,-0.228107 0.347404,-0.539258 0.411325,-0.920313 0.06386,-0.38069 0.07751,-0.844227 0.07751,-1.4334327 V 6.2174037 2.9759006 c 0,-0.5892071 -0.01365,-1.0527452 -0.07751,-1.4334338 C 11.235476,1.1614125 11.115795,0.85026324 10.888072,0.62215474 10.660271,0.39396784 10.349235,0.27433574 9.968793,0.21031394 9.5887774,0.14636384 9.126036,0.13228634 8.5379438,0.13228634 Z"
     id="path949"
     inkscape:connector-curvature="0" />
  <path
     inkscape:connector-curvature="0"
     style="display:inline;fill:#8bcbab;fill-opacity:1;stroke-width:0.10582813;enable-background:new"
     d="M 3.1416406,3.4086167 6.6407894,6.9077682 V 4.6701833 Z"
     id="path944" />
  <path
     inkscape:connector-curvature="0"
     style="display:inline;fill:#fa6441;fill-opacity:1;stroke-width:0.10582813;enable-background:new"
     d="M 7.1704459,4.6858934 9.5975691,5.7769365 9.0632614,4.6858934 Z"
     id="path942" />
  <path
     inkscape:connector-curvature="0"
     style="display:inline;fill:#8bcbab;fill-opacity:1;stroke-width:0.10582813;enable-background:new"
     d="M 6.8557528,4.7658836 V 6.7993553 L 8.3151253,5.4292725 Z"
     id="path940" />
  <path
     inkscape:connector-curvature="0"
     style="display:inline;fill:#8bcbab;fill-opacity:1;stroke-width:0.10582813;enable-background:new"
     d="M 5.8128696,6.4068414 4.1958896,9.4583903 6.5414723,7.1127044 Z"
     id="path962" />
  <path
     style="color:#000000;display:inline;overflow:visible;visibility:visible;opacity:0.07999998;fill:#ffffff;fill-opacity:1;fill-rule:nonzero;stroke:none;stroke-width:0.26457033;marker:none;enable-background:accumulate"
     d="m 1.5878056,6.2174037 v 3.2415036 c -0.01146,2.3393377 0.239778,2.5790437 2.574394,2.5790437 h 4.3757442 c 2.3346162,0 2.5743932,-0.23968 2.5743932,-2.5790437 V 6.2174037 Z"
     id="path1006"
     inkscape:connector-curvature="0" />
  <path
     style="color:#000000;display:inline;overflow:visible;visibility:visible;opacity:0.07999998;fill:#ffffff;fill-opacity:1;fill-rule:nonzero;stroke:none;stroke-width:0.26457033;marker:none;enable-background:accumulate"
     d="M 6.3500716,0.39685664 V 12.037951 h 2.1878722 c 2.3346162,0 2.5743932,-0.23968 2.5743932,-2.5790437 V 6.2174037 2.9759006 c 0,-2.33936516 -0.239777,-2.57904396 -2.5743932,-2.57904396 z"
     id="path1013"
     inkscape:connector-curvature="0" />
  <path
     id="path901"
     d="m 4.1625746,0.26457154 c -0.58592,0 -1.044317,0.014459 -1.410697,0.075961 -0.366379,0.061501 -0.647009,0.1731184 -0.849519,0.3751525 -0.20251,0.2020341 -0.314257,0.48213756 -0.375153,0.84848516 -0.0609,0.3663479 -0.07418,0.8250345 -0.07131,1.4122476 v 3.2409864 3.2415031 c -0.0029,0.5869047 0.01042,1.0455167 0.07131,1.4117297 0.0609,0.366348 0.17264,0.646451 0.375153,0.848485 0.202513,0.202034 0.483137,0.313651 0.849519,0.375153 0.36638,0.0615 0.824777,0.07596 1.410697,0.07596 h 4.3757449 c 0.5859174,0 1.0436082,-0.01445 1.4091465,-0.07596 0.365538,-0.06151 0.645721,-0.173077 0.847453,-0.375153 0.201732,-0.202073 0.313212,-0.482325 0.374634,-0.848485 0.06142,-0.36616 0.07545,-0.82463 0.07545,-1.4117297 V 6.2174037 2.9759006 c 0,-0.5871009 -0.01402,-1.0455706 -0.07545,-1.4117309 C 11.108131,1.1980094 10.996651,0.91775884 10.794919,0.71568454 10.593187,0.51361024 10.313004,0.40204594 9.947466,0.34053204 9.5819277,0.27901834 9.1242369,0.26457154 8.5383195,0.26457154 Z"
     style="color:#000000;display:inline;overflow:visible;visibility:visible;opacity:0.3;fill:none;fill-opacity:1;fill-rule:nonzero;stroke:url(#linearGradient925);stroke-width:0.26457033;stroke-opacity:1;marker:none;enable-background:accumulate"
     inkscape:connector-curvature="0" />
</svg>
